X:1
T:Title
%%score { 1 | ( 2 3 ) } { 4 | 5 }
L:1/8
Q:1/4=100
M:4/4
K:Ab
V:1 treble nm="Grand Piano, Soprano"
V:2 treble 
V:3 treble 
V:4 bass nm="Choir Pad, Once Again the Olden Story"
V:5 bass 
V:1
 E2 B2 B2 B2 | B=ABc B2 B2 | E2 A2 A2 A2 | AGAf e4 | dccB =A2 B2 | c2 B2 A2 G2 | FcBA B2 B,2 | %7
w: By~George~Edgar~Oliver * * *|||||||
 F3 E E4 | EEEF FGGF | FE=DE c2 c2 | F_GGF Fddc | cBBF B4 | Gffe e2 d2 | c2 B2 A2 F2 | %14
w: |||||||
 GB=dc B2 E2 | A2 F2 E4 | E2 B2 B2 B2 | B=ABc B4 | E2 A2 A2 A2 | AGAf e4 | c2 B2 A2 f2 | %21
w: |||||||
 e2 d2 c2 B2 | AcBA E2 c2 | B3 A A4- | A4 z4 |] %25
w: ||||
V:2
 D2 [DE]2 [DE]2 [DE]2 | [DE]2 [DE]2 [DE]2 [DE]2 | C2 [CE]2 [CE]2 [CE]2 | E2 EA A4 | .F2 G2 z4 | %5
 [CG]4 C2 C2 | B,4 B,2 z2 | =D4 z4 | [F,D]2 [F,D]2 [F,D]2 [F,D]2 | C2[K:treble] C2 [CE]2 [CE]2 | %10
 [=A,E]2 [A,E]2 E2 [EF]2 | [DF]2 .[DF]2 [DF]4 | z2 G2 G2 G2 | C4 C2 C2 | E2 E4 z2 | C2 =D2 z4 | %16
 D2 [DE]2 [DE]2 [DE]2 | [DE]2 [DE]2 [DE]4 | C2 [CE]2 [CE]2 [CE]2 | E2 EA A4 | %20
 [C_G]2 [CG]2 [CG]2 [Gc]2 | [_Gc]2 [EB]2 [EF]2 [CF]2 | C6 [CEA]2 | [DE]3 [CE] [CE]4- | [CE]4 z4 |] %25
V:3
 x8 | x8 | x8 | x8 | G-[EG]ED [DG]2 [DG]2 | x8 | x8 | x8 | x8 | x2[K:treble] x6 | x8 | x8 | x8 | %13
 x8 | x8 | x8 | x8 | x8 | x8 | x8 | x8 | x8 | E4 z4 | x8 | x8 |] %25
V:4
 E,,2 G,2 E,,2 G,2 | E,,2 G,2 E,,2 G,2 | A,,,2 A,2 A,,,2 A,2 | C_C=CD C4 | E,,4 E,2 E,2 | %5
 =E,4 F,2 E,2 | F,4 G,4 | A,3 G, G,4 | E,8 | E,8 | F,8 | z4 F,4 | E,,2 D2 E,,2 D2 | =E,4 F,2 A,2 | %14
 B,2 =A,2 G,2 G,2 | F,2 A,2 G,4 | E,,2 G,2 E,,2 G,2 | E,,2 G,2 E,,2 G,2 | A,,,2 A,2 A,,,2 A,2 | %19
 C_C=CD C4 | A,8 | =A,,2 B,,2 C,2 D,2 | E,6 E,2 | G,3 A, A,4- | A,4 z4 |] %25
V:5
 z2 [B,,E,]2 z2 [B,,E,]2 | z2 [B,,E,]2 z2 [B,,E,]2 | z2 E,2 z2 E,2 | E,2 E,2 E,4 | z8 | %5
 =E,,4 F,,2 G,,2 | A,,4 B,,4 | B,,3 E, E,4 | B,,2 E,,2 B,,2 E,,2 | A,,2 F,,2 A,,2 E,,2 | %10
 C,2 F,,2 C,2 F,,2 | F,2 B,,2 B,,4 | z2 [E,B,]2 z2 [E,B,]2 | =E,,4 F,,2 A,,2 | B,,4 B,,2 C,2 | %15
 F,,2 B,,2 E,4 | z2 [B,,E,]2 z2 [B,,E,]2 | z2 [B,,E,]2 z2 [B,,E,]2 | z2 D,2 z2 D,2 | E,2 E,2 E,4 | %20
 E,2 A,,2 E,2 A,,2 | =A,,,2 B,,,2 C,,2 D,,2 | E,,6 E,,2 | E,,3 A,, A,,4- | A,,4 z4 |] %25

